X:6
T:From Kenmare to Brodick
C:Gillian Frame and Padraig O'Neill
Z:robin.beech@mcgill.ca
M:3/4
L:1/8
R:air
K:D
D>E | F3d c>A | G4 F>G | A3d2 c/A/ | B4 B/A/G | F3d c>A | E4 DE | F/E/D  B,>D A,>D | G,4 ::
D | E4 D>E | F3 D2 E/F/ | G3 A2 B/d/ | c3d c/B/A | B3d c/B/A | E4 D>E | F/E/D B,>D A,>D | G,4 ::
d>e | f3e f/g/a | e3d c/B/A | d>A e>A f>A | g3g a>g | f3e f/g/a | e4 d>e | f/e/d B>dA>d | G4 :|
